X: 9
T: The Irish Washerwoman
R: jig
M: 6/8
L: 1/8
K: Amin
cAA EAA|cAc edc|dBB GBB|dBd fed|cAA EAA|cAc edc|d^cd Bed|1 cAA Aed:|2 cAA A2e|||:aee cee|aea c'ba|gdd Bdd|gdg bag|faa eaa|daa caa|d^cd Bed|1 cAA A2e:|2 cAA Aed||cAA EAA|~c3 edc|dBB GBB|~d3 fed|cAA EAA|cAc edc|~d3 Bed|1 cAA Aed:|2 cAA A2e|||:aee cee|~a2b c'ba|gdd Bdd|gdg bag|faa eaa|daa ~c3|~d3 Bed|1 cAA A2e:|2 cAA Aed||


Tune 92	Setting 21131

